X: 20564
T: LADY ANN HOPE'S FAVOURITE
O: Scottish
Q: "With spirit."
%R: reel
B: W. Hamilton "Universal Tune-Book" Vol. 2 Glasgow 1846 p.56 #4 (and p.57 #1)
S: http://s3-eu-west-1.amazonaws.com/itma.dl.printmaterial/book_pdfs/hamiltonvol2web.pdf
Z: 2016 John Chambers <jc:trillian.mit.edu>
M: C
L: 1/16
K: G
% - - - - - - - - - - - - - - - - - - - - - - - - -
g2e2 |\
d3B G2Bc (dc)BA G2Bc | d3Bg3B A4 A2Bc |\
d3BG2B2 d2ga b3a | g3ed2B2 G4G2 :: g2 |
gaba g2d2 efge d2cB | d2ef gedB A4 A2b2 |\
gaba g3d efgf e2dB | d2ef gedB d4 d3a |
gaba g3d efgf e2dB | d2e/g/f/a/ gedB A4 A2ge |\
d3BG2B2 d2ga b3a | g3ed2B2 G4G2 |]
% - - - - - - - - - - - - - - - - - - - - - - - - -

% (Continued from previous page)

%%sep 1 1 500
%%sep 1 1 500

